X: 43589
T: Young Terrance McDonough
R: waltz
M: 3/4
K: Bminor
(BA)|F2 B2 (c^A)|B4 (Bc)|d2 f2 (ed)|e4 (ee)|
f2 b2 (ba)|f2 a2 (fe)|d2 c2 B2|A4 (Bc)|
d2 c2 B2|B2 b2 (ab)|g2 a2 (ab)|a4 fe|d2 c2 B2|
^A2 c2 (de)|f2 F2 (Bc)|B4 (BA)|F2 B2 B2|
B2 B2 (BA)|F2 d2 d2|d4 cB|A2 a2 a2|
(ba) (gf) (ed)|c2 (Bc)(de)|f4 (fe)|d2 d2 (ed)|
c2 c2 (Bc)|d2 (de) (F^G)|A4 (fe)|d2 d2 d2|
c2 d2 e2|f2 F2 (Bc)|B4||

